X:1
T:Scone Palace
T:Scone Palace
T:Alexander Walker
C:Alexander Walker
L:1/8
M:2/2
K:F#min
V:1 treble 
V:1
 E | F/F/F (cF) AFcF | E/E/E (BE) GEBG | F/F/F (cF) AFcA | GECE (F2 F) :: c | f2 cf AF fc | %7
 e2 Be GEBG | FGAB cdec | BGEG F/F/F Fc | f2 cf AF fc | e2 Be GEBG | Fage fcec | BGeG F/F/FF || %14

